icons/jest/jest-plain.svg

<svg xmlns="http://www.w3.org/2000/svg" viewBox="0 0 128 128">
    <path fill="#99425B" d="M 124.128906 63.019531 C 124.128906 55.328125 118.300781 48.855469 110.476562 47.007812 L 128 0.113281 L 41.160156 0.113281 L 58.722656 47.15625 C 51.144531 49.152344 45.558594 55.511719 45.558594 63.058594 C 45.558594 68.605469 48.617188 73.523438 53.261719 76.554688 C 51.429688 78.921875 49.308594 81.105469 46.90625 83.175781 C 42.382812 87.023438 37.367188 89.980469 31.949219 91.941406 C 27.058594 88.945312 24.941406 83.65625 26.855469 78.921875 C 34.3125 76.851562 39.734375 70.527344 39.734375 63.09375 C 39.734375 53.960938 31.542969 46.5625 21.515625 46.5625 C 11.449219 46.5625 3.261719 53.996094 3.261719 63.132812 C 3.261719 67.644531 5.296875 71.785156 8.558594 74.742188 C 8.273438 75.261719 7.988281 75.777344 7.703125 76.332031 C 4.972656 81.4375 1.875 87.207031 0.691406 93.679688 C -1.671875 106.621094 2.199219 117.015625 11.53125 122.894531 C 16.789062 126.1875 22.578125 127.851562 28.8125 127.851562 C 39.527344 127.851562 50.410156 122.96875 60.921875 118.234375 C 68.421875 114.871094 76.164062 111.355469 83.785156 109.65625 C 86.597656 109.027344 89.53125 108.65625 92.628906 108.25 C 98.902344 107.4375 105.382812 106.585938 111.210938 103.515625 C 118.015625 99.929688 122.660156 93.9375 124.007812 87.058594 C 125.023438 81.769531 124.007812 76.445312 121.398438 71.785156 C 123.152344 69.234375 124.128906 66.238281 124.128906 63.019531 Z M 116.183594 63.019531 C 116.183594 68.160156 111.578125 72.339844 105.914062 72.339844 C 100.25 72.339844 95.644531 68.160156 95.644531 63.019531 C 95.644531 61.355469 96.132812 59.765625 96.988281 58.398438 C 97.3125 57.878906 97.722656 57.363281 98.128906 56.917969 C 98.535156 56.472656 99.027344 56.066406 99.554688 55.699219 L 99.597656 55.660156 C 99.921875 55.4375 100.289062 55.214844 100.65625 54.996094 C 100.65625 54.996094 100.695312 54.996094 100.695312 54.957031 C 100.859375 54.882812 101.023438 54.773438 101.1875 54.699219 C 101.226562 54.699219 101.265625 54.660156 101.308594 54.660156 C 101.472656 54.589844 101.675781 54.515625 101.878906 54.441406 C 102.082031 54.367188 102.285156 54.292969 102.449219 54.21875 C 102.488281 54.21875 102.53125 54.179688 102.570312 54.179688 C 102.734375 54.144531 102.898438 54.070312 103.058594 54.035156 C 103.101562 54.035156 103.183594 53.996094 103.222656 53.996094 C 103.425781 53.960938 103.589844 53.921875 103.792969 53.886719 L 103.835938 53.886719 L 104.445312 53.773438 C 104.488281 53.773438 104.566406 53.773438 104.609375 53.738281 C 104.773438 53.738281 104.933594 53.699219 105.097656 53.699219 L 105.300781 53.699219 C 105.503906 53.699219 105.710938 53.664062 105.953125 53.664062 L 106.484375 53.664062 C 106.644531 53.664062 106.769531 53.664062 106.929688 53.699219 L 107.011719 53.699219 C 107.339844 53.738281 107.664062 53.773438 107.992188 53.847656 C 112.636719 54.734375 116.183594 58.507812 116.183594 63.019531 Z M 52.527344 7.507812 L 116.628906 7.507812 L 101.917969 46.894531 C 101.308594 47.007812 100.695312 47.191406 100.085938 47.375 L 84.601562 18.714844 L 69.074219 47.191406 C 68.460938 47.007812 67.808594 46.894531 67.160156 46.785156 Z M 81.664062 59.800781 C 80.890625 56.324219 78.933594 53.21875 76.164062 50.925781 L 84.601562 35.46875 L 93.117188 51.257812 C 90.589844 53.550781 88.757812 56.472656 88.023438 59.800781 Z M 61.25 53.960938 C 61.453125 53.921875 61.617188 53.886719 61.820312 53.847656 L 61.941406 53.847656 C 62.105469 53.8125 62.269531 53.8125 62.429688 53.773438 L 62.59375 53.773438 C 62.757812 53.773438 62.878906 53.738281 63.042969 53.738281 L 64.632812 53.738281 C 64.792969 53.738281 64.917969 53.773438 65.039062 53.773438 C 65.121094 53.773438 65.160156 53.773438 65.242188 53.8125 C 65.40625 53.847656 65.527344 53.847656 65.691406 53.886719 C 65.730469 53.886719 65.773438 53.886719 65.855469 53.921875 C 66.058594 53.960938 66.261719 53.996094 66.425781 54.035156 L 66.464844 54.035156 C 66.628906 54.070312 66.792969 54.105469 66.953125 54.179688 C 66.996094 54.179688 67.035156 54.21875 67.117188 54.21875 C 67.238281 54.253906 67.402344 54.292969 67.523438 54.367188 C 67.566406 54.367188 67.605469 54.402344 67.648438 54.402344 C 67.808594 54.476562 67.972656 54.515625 68.136719 54.589844 L 68.175781 54.589844 C 68.378906 54.660156 68.542969 54.734375 68.707031 54.847656 L 68.746094 54.847656 C 68.910156 54.921875 69.074219 55.03125 69.238281 55.105469 C 69.277344 55.105469 69.277344 55.144531 69.316406 55.144531 C 69.480469 55.214844 69.601562 55.328125 69.765625 55.402344 L 69.808594 55.4375 C 70.296875 55.769531 70.746094 56.140625 71.191406 56.511719 L 71.234375 56.546875 C 71.640625 56.953125 72.046875 57.398438 72.375 57.878906 C 73.433594 59.359375 74.046875 61.097656 74.046875 62.984375 C 74.046875 68.125 69.441406 72.300781 63.777344 72.300781 C 58.113281 72.300781 53.507812 68.125 53.507812 62.984375 C 53.464844 58.65625 56.765625 54.996094 61.25 53.960938 Z M 21.148438 53.699219 C 26.8125 53.699219 31.417969 57.878906 31.417969 63.019531 C 31.417969 68.160156 26.8125 72.339844 21.148438 72.339844 C 15.484375 72.339844 10.878906 68.160156 10.878906 63.019531 C 10.878906 57.878906 15.484375 53.699219 21.148438 53.699219 Z M 115.9375 85.765625 C 115.042969 90.496094 111.820312 94.640625 107.09375 97.117188 C 102.652344 99.449219 97.191406 100.1875 91.445312 100.925781 C 88.308594 101.332031 85.007812 101.777344 81.828125 102.480469 C 73.351562 104.367188 65.203125 108.066406 57.296875 111.613281 C 47.191406 116.164062 37.652344 120.453125 28.8125 120.453125 C 24.207031 120.453125 20.089844 119.269531 16.179688 116.792969 C 7.214844 111.171875 7.660156 100.632812 8.722656 94.863281 C 9.699219 89.460938 12.429688 84.394531 15.039062 79.550781 C 15.199219 79.253906 15.324219 78.996094 15.484375 78.699219 C 16.382812 78.996094 17.320312 79.21875 18.296875 79.367188 C 16.75 87.207031 21.148438 95.304688 29.707031 99.300781 L 31.257812 100.039062 L 32.925781 99.484375 C 40.058594 97.191406 46.660156 93.457031 52.488281 88.464844 C 55.789062 85.652344 58.601562 82.621094 60.964844 79.328125 C 61.902344 79.476562 62.839844 79.515625 63.777344 79.515625 C 72.253906 79.515625 79.382812 74.226562 81.421875 67.125 L 88.265625 67.125 C 90.304688 74.261719 97.4375 79.515625 105.914062 79.515625 C 109.296875 79.515625 112.433594 78.664062 115.121094 77.222656 C 116.183594 79.996094 116.507812 82.878906 115.9375 85.765625 Z M 115.9375 85.765625 "/>
</svg>

<svg xmlns="http://www.w3.org/2000/svg" viewBox="0 0 128 128"><path fill="#99425B" d="M124.129 63.02c0-7.692-5.828-14.165-13.652-16.012L128 .113H41.16l17.563 47.043c-7.578 1.996-13.164 8.356-13.164 15.903 0 5.546 3.058 10.464 7.703 13.496-1.832 2.367-3.953 4.55-6.356 6.62-4.523 3.848-9.539 6.805-14.957 8.766-4.89-2.996-7.008-8.285-5.094-13.02 7.457-2.07 12.88-8.394 12.88-15.827 0-9.133-8.192-16.532-18.22-16.532-10.066 0-18.253 7.434-18.253 16.57 0 4.513 2.035 8.653 5.297 11.61-.286.52-.57 1.035-.856 1.59C4.973 81.438 1.875 87.207.691 93.68c-2.363 12.941 1.508 23.336 10.84 29.215 5.258 3.293 11.047 4.957 17.282 4.957 10.714 0 21.597-4.883 32.109-9.618 7.5-3.363 15.242-6.879 22.863-8.578 2.813-.629 5.746-1 8.844-1.406 6.273-.813 12.754-1.664 18.582-4.734 6.805-3.586 11.45-9.579 12.797-16.457 1.015-5.29 0-10.614-2.61-15.274a15.35 15.35 0 002.73-8.765zm-7.945 0c0 5.14-4.606 9.32-10.27 9.32s-10.27-4.18-10.27-9.32c0-1.665.489-3.254 1.344-4.622.325-.52.735-1.035 1.14-1.48a8.517 8.517 0 011.427-1.219l.043-.039c.324-.222.691-.445 1.058-.664 0 0 .04 0 .04-.039.163-.074.327-.184.492-.258.039 0 .078-.039.12-.039.165-.07.368-.144.57-.219a8.78 8.78 0 00.571-.222c.04 0 .082-.04.121-.04.164-.034.328-.109.489-.144.043 0 .125-.039.164-.039.203-.035.367-.074.57-.11h.043l.61-.113c.042 0 .12 0 .163-.035.164 0 .325-.039.489-.039h.203c.203 0 .41-.035.652-.035h.531c.16 0 .286 0 .446.035h.082c.328.04.652.074.98.149 4.645.886 8.192 4.66 8.192 9.172zM52.527 7.508h64.102l-14.711 39.387c-.61.113-1.223.296-1.832.48l-15.484-28.66L69.074 47.19c-.613-.183-1.265-.296-1.914-.406zM81.664 59.8c-.773-3.477-2.73-6.582-5.5-8.875l8.438-15.457 8.515 15.789c-2.527 2.293-4.36 5.215-5.094 8.543zM61.25 53.96c.203-.04.367-.074.57-.113h.121c.164-.035.329-.035.489-.075h.164c.164 0 .285-.035.449-.035h1.59c.16 0 .285.035.406.035.082 0 .121 0 .203.04.164.035.285.035.45.074.038 0 .081 0 .163.035.204.039.407.074.57.113h.04c.164.035.328.07.488.145.043 0 .082.039.164.039.121.035.285.074.406.148.043 0 .082.035.125.035.16.075.325.114.489.188h.039c.203.07.367.144.531.258h.04c.163.074.327.183.491.257.04 0 .04.04.078.04.164.07.286.183.45.257l.043.035c.488.333.937.704 1.382 1.075l.043.035c.407.406.813.851 1.141 1.332 1.059 1.48 1.672 3.219 1.672 5.105 0 5.141-4.606 9.317-10.27 9.317s-10.27-4.176-10.27-9.317c-.042-4.328 3.259-7.988 7.743-9.023zm-40.102-.262c5.665 0 10.27 4.18 10.27 9.32 0 5.141-4.605 9.32-10.27 9.32-5.664 0-10.27-4.179-10.27-9.32 0-5.14 4.606-9.32 10.27-9.32zm94.79 32.067c-.895 4.73-4.118 8.875-8.844 11.351-4.442 2.332-9.903 3.07-15.649 3.809-3.136.406-6.437.851-9.617 1.554-8.476 1.887-16.625 5.586-24.531 9.133-10.106 4.551-19.645 8.84-28.484 8.84-4.606 0-8.723-1.183-12.633-3.66-8.965-5.621-8.52-16.16-7.457-21.93.976-5.402 3.707-10.468 6.316-15.312.16-.297.285-.555.445-.852.899.297 1.836.52 2.813.668-1.547 7.84 2.851 15.938 11.41 19.934l1.55.738 1.669-.555c7.133-2.293 13.734-6.027 19.562-11.02 3.301-2.812 6.114-5.843 8.477-9.136.937.149 1.875.188 2.812.188 8.477 0 15.606-5.29 17.645-12.391h6.844c2.039 7.137 9.171 12.39 17.648 12.39 3.383 0 6.52-.85 9.207-2.292 1.063 2.773 1.387 5.656.817 8.543zm0 0"/></svg>
